svgs/thin/file-signature.svg

<svg xmlns="http://www.w3.org/2000/svg" viewBox="0 0 576 512"><!--! Font Awesome Pro 6.0.0-alpha3 by @fontawesome - https://fontawesome.com License - https://fontawesome.com/license (Commercial License) --><path d="M567.2 142.4l-37.56-37.56c-5.859-5.859-13.54-8.789-21.23-8.789s-15.37 2.93-21.23 8.789L275.4 316.6c-1.396 1.395-2.348 3.172-2.738 5.109L256.1 400H243.3l-24-24c-6.031-6.062-16.59-6.062-22.62 0l-17.89 17.91l-28.02-67.25c-5-12-24.56-12-29.56 0L90.67 400H72C67.58 400 64 403.6 64 408S67.58 416 72 416H96c3.234 0 6.141-1.938 7.391-4.938L136 332.8l32.61 78.28c2.191 5.25 8.975 6.625 13.05 2.594L208 387.3l26.34 26.34C235.8 415.2 237.9 416 240 416c0 0 27.27-.0664 27.95-.2031l82.32-16.46c1.938-.3906 3.715-1.34 5.111-2.734l211.8-211.8C578.9 173.1 578.9 154.1 567.2 142.4zM345.4 384l-71.74 14.45l14.36-71.82l157.7-157.7l57.38 57.38L345.4 384zM555.9 173.5l-41.55 41.54l-57.38-57.38l41.54-41.54c5.471-5.469 14.35-5.477 19.83 0l37.56 37.56C561.4 159.1 561.4 168 555.9 173.5zM376 432c-4.418 0-8 3.582-8 8V448c0 26.51-21.49 48-48 48H64c-26.51 0-48-21.49-48-48V64c0-26.51 21.49-48 48-48h144v120c0 22.09 17.91 40 40 40h133.3C382.8 176 384 174.8 384 173.3c0-8.488-3.373-16.63-9.375-22.63L233.4 9.367C227.4 3.367 219.2 0 210.7 0H63.93C28.58 0 0 28.65 0 64l.0065 384c0 35.34 28.58 64 63.93 64H320c35.35 0 64-28.66 64-64v-8C384 435.6 380.4 432 376 432zM224 22.63L361.4 160H248C234.8 160 224 149.2 224 136V22.63z"/></svg>

<svg xmlns="http://www.w3.org/2000/svg" viewBox="0 0 576 512"><!-- Font Awesome Pro 6.0.0-alpha2 by @fontawesome - https://fontawesome.com License - https://fontawesome.com/license (Commercial License) --><path d="M567.211 142.355L529.652 104.797C523.793 98.937 516.107 96.008 508.422 96.008S493.051 98.937 487.191 104.797L275.383 316.602C273.986 317.996 273.035 319.773 272.645 321.711L256.99 400H243.312L219.312 376C213.281 369.938 202.719 369.938 196.688 376L178.797 393.906L150.781 326.656C145.781 314.656 126.219 314.656 121.219 326.656L90.672 400H72C67.578 400 64 403.594 64 408S67.578 416 72 416H96C99.234 416 102.141 414.062 103.391 411.062L136 332.781L168.609 411.063C170.801 416.313 177.584 417.688 181.656 413.656L208 387.312L234.344 413.656C235.844 415.156 237.875 416 240 416C240 416 267.273 415.934 267.951 415.797L350.271 399.336C352.209 398.945 353.986 397.996 355.383 396.602L567.211 184.809C578.93 173.078 578.93 154.074 567.211 142.355ZM345.352 384.008L273.615 398.457L287.977 326.637L445.65 168.961L503.031 226.344L345.352 384.008ZM555.9 173.492C515.443 213.93 522.676 206.703 514.346 215.031L456.963 157.648C485.291 129.32 475.91 138.699 498.506 116.109C503.977 110.641 512.859 110.633 518.34 116.109L555.896 153.668C561.359 159.133 561.357 168.027 555.9 173.492ZM376 432C371.582 432 368 435.582 368 440V448C368 474.508 346.51 496 320 496H64C37.49 496 16 474.508 16 448V64C16 37.492 37.49 16 64 16H208V136C208 158.094 225.908 176 248 176H381.254C382.771 176 384 174.77 384 173.254C384 164.766 380.627 156.625 374.625 150.621L233.367 9.367C227.369 3.367 219.23 0 210.746 0H64C28.654 0 0 28.652 0 64V448C0 483.344 28.654 512 64 512H320C355.346 512 384 483.344 384 448V440C384 435.582 380.418 432 376 432ZM224 22.629L361.375 160H248C234.781 160 224 149.234 224 136V22.629Z"/></svg>
